X:42
T:Wilkes Release
M:2/4
L:1/8
S:Aird, Vol. II(1782)
Z:AK/Fiddler\'is Companion
K:D
A |:d>fe>g | fa a/g/f/e/ | f/a/f/d/ e/g/e/c/ | dA FD | d>fe>g | faa/g/f/e/ | 
f/a/f/d/e/g/e/c/ | d2 d :: a | a>g f/a/a/b/ | a/d\'i/a/f/ | g>f e/f/g/a/ | gbge 
| 
(f2 f/)d/e/f/ | (g2 g/)e/f/g/ | ab/a/ gf| e/d/c/B/ A/B/c/A/ :|
